X: 21988
T: Kitty Sean Cunningham's
R: barndance
M: 4/4
K: Gmajor
d<gd>B G>DD>G|F2 =F2 E2 A>B|c>Bc>A F2 (3DEF|G>d (3^cde d2 (3ABc|
d2 g<d G>BD>G|F2 =F2 E4|c2 (3cde d>c (3AGF|G2 d2 G2:|
F2 F>^E F>Ac>A|(3GAG A>F G2 (3ABc|d>AF>A D>FA>d|
[1 B>^AB>c B>GF>E|F>DF>^E F>A (3cBA|G2 G>F G>AB>c|d>AF>A D2 A>F|G2 (3FGA G2:|
[2 B2 (3cBA B2 (3def|g2 g>f g>d (3Bcd|c2 c>B c2 A>B|c>Gc>e d>cA>D|G2 (3d^cd G2||

